X:186
T:The Chanter's Tune
Z:Jack Campin, http://www.campin.me.uk/
F:Jack Campin's Nine-Note Tunebook
% last edit 27-02-2013
M:2/2
L:1/8
Q:1/2=80
K:DDor
D2D2 A2G>E|D2D>D c2Bc|d2A2 A2G>E|c2Bd cAGE|
D2D2 A2G>E|D2D>D c2Bc|d2A2 A2G>E|D4   D4 :|
A3B  c2B>c|AGAB  c2Bc|d2A2 A2G>E|c2Bd cAGE|
D2D2 A2G>E|D2D>D c2Bc|d2A2 A2G>E|D4   D4 :|

